X:18986
T:Xiraldilla (CT 126) (Arrg.)
R:Xiraldilla
C:Tradicional
S:Música Tradicional Asturiana, (C) Tello & Tito. Asturies, 2001.
S:http://pagina.de/MusTradAst <telloytito@asturies.org>
N:Xiraldilla, transcrita en Uviéu.
O:Uviéu
A:Asturies
G:Arrg.
Z:Cancioneru de Torner 126
M:2/4
L:1/8
Q:1/4=168
W:¿Adónde va la mi morena,
W:adónde va tan de mañana?
W:
W:Voy a la fuente serena
W:por una jarrita de agua.
K:G
|"G"dd de|"G"d2 BA|"G"G2 G2|"C"ee ee|"G"d2 "C"cB|"D"A2 A2|
"Am"AB cd|"C"e3 d|"G"g2 "D"f2|"G"de dB|"C"un carpinteru;
W:por eso pesaba tantu
W:el demoniu delmaderu.
W:Era de peral,
W:por eso pesaba tantu l'animal.
K:G
|dd dd|g3f|e2 c2|eg fe|d3c|B2 G2|
dd dd|g3f|e2 c2|eg fe|d3c|B2 G2|
Bd cB|A4|eg fe|d3c|BcBA|G4||


